svgs/pokemon_go.svg

<svg width="192" height="192" viewBox="0 0 192 192" fill="none" xmlns="http://www.w3.org/2000/svg"><path style="clip-rule:evenodd;fill:#000;fill-rule:evenodd" d="M96 78c-9.941 0-18 8.059-18 18s8.059 18 18 18 18-8.059 18-18-8.059-18-18-18zm0-62a80.025 80.025 0 0 0-68.107 38.027 80.018 80.018 0 0 0-3.36 77.93 6 6 0 0 0 8.057 2.662 6 6 0 0 0 2.662-8.056A67.944 67.944 0 0 1 28.27 102H66.6c2.78 13.693 14.886 24 29.4 24s26.62-10.307 29.4-24h38.33a67.944 67.944 0 0 1-6.982 24.563 6 6 0 0 0 2.662 8.056 6 6 0 0 0 8.057-2.662 80.019 80.019 0 0 0-3.36-77.93A80.025 80.025 0 0 0 96 16Zm0 12a67.984 67.984 0 0 1 57.893 32.322c5.636 9.145 8.904 19.32 9.822 29.678H125.4c-2.78-13.693-14.886-24-29.4-24S69.38 76.307 66.6 90H28.285c.918-10.358 4.186-20.533 9.822-29.678A67.984 67.984 0 0 1 96 28Zm29.808 98c-13.735 0-25.008 11.267-25.008 25 0 13.724 11.269 25 25.008 25 13.73 0 24.992-11.276 24.992-25 0-13.733-11.267-25-24.992-25Zm0 11.15A13.818 13.818 0 0 1 139.65 151c0 7.658-6.183 13.85-13.842 13.85A13.833 13.833 0 0 1 111.95 151a13.82 13.82 0 0 1 13.857-13.85zM66.2 126c-13.742 0-25 11.259-25 25s11.258 25 25 25c13.74 0 25-11.259 25-25a5.576 5.576 0 0 0-5.576-5.575H66.2A5.575 5.575 0 0 0 60.624 151a5.575 5.575 0 0 0 5.576 5.575h12.686c-2.125 4.892-6.963 8.274-12.686 8.274-7.716 0-13.85-6.133-13.85-13.849s6.134-13.85 13.85-13.85c3.667 0 7.191 1.46 9.784 4.051a5.575 5.575 0 0 0 7.885 0 5.575 5.575 0 0 0 0-7.883A24.998 24.998 0 0 0 66.2 126Z"/></svg>

<?xml version="1.0" encoding="UTF-8" standalone="no"?><svg xmlns:android="http://schemas.android.com/apk/res/android" height="192" width="192" xmlns="http://www.w3.org/2000/svg">
  <path d="m96,78c-9.941,0 -18,8.059 -18,18 0,9.941 8.059,18 18,18 9.941,0 18,-8.059 18,-18 0,-9.941 -8.059,-18 -18,-18zM96,16C68.246,16 42.454,30.4 27.893,54.027 13.331,77.654 12.059,107.165 24.533,131.957a6,6 0,0 0,8.057 2.662,6 6,0 0,0 2.662,-8.057C31.33,118.768 29.016,110.429 28.27,102L66.6,102C69.379,115.693 81.486,126 96,126c14.514,0 26.62,-10.307 29.4,-24h38.33c-0.747,8.429 -3.06,16.768 -6.982,24.563a6,6 0,0 0,2.662 8.057,6 6,0 0,0 8.057,-2.662C179.941,107.165 178.669,77.654 164.107,54.027 149.546,30.4 123.754,16 96,16ZM96,28c23.607,0 45.507,12.226 57.893,32.322C159.529,69.467 162.797,79.642 163.715,90L125.4,90C122.62,76.307 110.514,66 96,66 81.486,66 69.379,76.307 66.6,90L28.285,90C29.203,79.642 32.471,69.467 38.107,60.322 50.493,40.226 72.393,28 96,28ZM125.808,126c-13.734,0 -25.007,11.267 -25.007,25 0,13.724 11.269,25 25.007,25 13.73,0 24.993,-11.276 24.993,-25C150.8,137.267 139.533,126 125.808,126ZM125.808,137.151c7.663,0 13.842,6.175 13.842,13.849 0,7.658 -6.183,13.849 -13.842,13.849 -7.675,0 -13.857,-6.191 -13.857,-13.849 0,-7.674 6.177,-13.849 13.857,-13.849zM66.2,126C52.458,126 41.2,137.259 41.2,151 41.2,164.741 52.458,176 66.2,176c13.741,0 25,-11.259 25,-25a5.576,5.576 0,0 0,-5.575 -5.575L66.2,145.425a5.575,5.575 0,0 0,-5.575 5.575,5.575 5.575,0 0,0 5.575,5.575h12.686c-2.125,4.891 -6.963,8.274 -12.686,8.274 -7.716,0 -13.849,-6.133 -13.849,-13.849 0,-7.716 6.133,-13.849 13.849,-13.849 3.667,0 7.192,1.459 9.784,4.051a5.575,5.575 0,0 0,7.886 0,5.575 5.575,0 0,0 0,-7.884C79.184,128.632 72.822,126 66.2,126Z" fill="#000000" fill-rule="evenOdd"/>
</svg>
